StripePaymentSheet/StripePaymentSheet/Resources/StripePaymentSheet.xcassets/PaymentMethods/icon-pm-upi.imageset/icon-pm-upi-color.svg

<svg fill="none" height="16" viewBox="0 0 24 16" width="24" xmlns="http://www.w3.org/2000/svg"><g fill="#3d3d3c"><path d="m.192515 11.2828h.179647l-.168241.6987c-.025664.1026-.01996.1825.014258.2338s.096952.077.191053.077c.091249 0 .168241-.0257.228123-.077s.099804-.1312.125468-.2338l.16824-.6987h.182497l-.171091.7158c-.03707.154-.102655.2709-.199607.3479-.094101.077-.219568.1169-.373551.1169s-.259491-.0371-.3165213-.1141c-.05703069-.077-.0684368-.1939-.0313668-.3479z"/><path d="m1.08789 12.432.28515-1.1948.5418.7015c.01425.02.02851.0399.04277.0627s.02851.0485.04562.077l.19106-.7956h.16824l-.28516 1.192-.55319-.7157c-.01426-.02-.02852-.04-.04278-.0599-.01425-.0228-.02566-.0428-.03422-.0685l-.19105.7985h-.16824z"/><path d="m2.34827 12.432.27374-1.1492h.1825l-.27374 1.1492z"/><path d="m2.79028 12.432.27375-1.1492h.62449l-.03707.1597h-.44199l-.06844.2852h.44199l-.03992.1625h-.44199l-.12832.539h-.1825z"/><path d="m3.61719 12.432.27375-1.1492h.18249l-.27374 1.1492z"/><path d="m4.0592 12.432.27375-1.1492h.62449l-.03707.1597h-.44199l-.06844.288h.44199l-.03992.1626h-.44199l-.0884.3707h.44199l-.03992.1682z"/><path d="m4.89465 12.432.27375-1.1492h.24523c.15969 0 .2709.0086.33078.0257s.11121.0428.15113.0827c.05133.0513.08555.1169.09981.1939.01426.0798.00855.1711-.01426.2709-.02566.1027-.06273.1911-.11406.2709s-.11692.1426-.19391.1939c-.05703.0399-.11976.0656-.1882.0827-.06558.0171-.16539.0257-.29656.0257h-.04847-.24524zm.22242-.1711h.15399c.08269 0 .14828-.0057.1939-.0171.04563-.0114.08555-.0314.12262-.057.05132-.0371.0941-.0827.12832-.1397.03421-.0542.05988-.1198.07699-.1939.01711-.0742.02281-.1369.01426-.1911-.00856-.0542-.02852-.1027-.06274-.1397-.02566-.0285-.05703-.0457-.0998-.0571-.04278-.0114-.10836-.0171-.20246-.0171h-.06559-.06558z"/><path d="m6.81946 11.9159-.12261.5161h-.17109l.27374-1.1492h.2766c.0827 0 .13973.0057.1768.0143s.06558.0228.0884.0456c.02851.0257.04847.0628.05703.1084.00855.0456.0057.0941-.00571.1483-.01425.0541-.03422.1055-.06558.1511-.03137.0456-.06844.0827-.10836.1084-.03422.0199-.07129.037-.11121.0456-.03992.0085-.10265.0142-.1825.0142h-.03707-.06844zm.04848-.154h.04563c.0998 0 .17109-.0114.21101-.0342s.06558-.0627.07984-.1198c.01426-.0599.00571-.1055-.02281-.1283-.03137-.0257-.0941-.0371-.1882-.0371h-.04563z"/><path d="m8.01143 12.432-.05703-.2965h-.44484l-.19961.2965h-.19105l.82694-1.1948.25664 1.1948zm-.39351-.4534h.31081l-.05132-.2623c-.00286-.0171-.00571-.0371-.00571-.0571-.00285-.0228-.00285-.0456-.00285-.0712-.01141.0256-.02281.0484-.03707.0712-.01141.0229-.02281.0428-.03422.0599z"/><path d="m8.46484 12.432.12547-.5247-.22813-.6216h.19105l.14258.3907c.00285.0114.00571.0228.01141.0399s.00855.0342.01426.0513c.0114-.0171.02281-.0342.03421-.0513.01141-.0171.02282-.0314.03422-.0456l.33363-.385h.1825l-.53324.6188-.12546.5247h-.1825z"/><path d="m10.2014 11.8646c0-.0086.0028-.0343.0085-.0742.0029-.0342.0057-.0599.0086-.0827-.0114.0257-.0228.0514-.0371.0799-.0142.0256-.0313.0541-.0513.0798l-.43914.6131-.14258-.6245c-.0057-.0257-.01141-.0513-.01426-.0741s-.0057-.0485-.0057-.0713c-.0057.0228-.01426.0485-.02281.077-.00856.0256-.01996.0541-.03422.0827l-.25664.5646h-.16824l.55035-1.1977.15683.7243c.00285.0114.0057.0314.00856.057.00285.0257.00855.0599.01425.0998.01996-.0342.04563-.0741.07985-.1254.00855-.0143.01711-.0228.01996-.0314l.49619-.7243-.0171 1.1977h-.1683z"/><path d="m10.5037 12.432.2737-1.1492h.6245l-.0371.1597h-.442l-.0684.288h.442l-.0399.1626h-.442l-.0884.3707h.442l-.04.1682z"/><path d="m11.3363 12.432.2852-1.1948.5417.7015c.0143.02.0286.0399.0428.0627.0143.0228.0285.0485.0456.077l.1911-.7956h.1682l-.2851 1.192-.5532-.7157c-.0143-.02-.0285-.04-.0428-.0599-.0142-.0228-.0256-.0428-.0342-.0685l-.1911.7985h-.1682z"/><path d="m13.1927 11.4397-.2367.9895h-.1825l.2367-.9895h-.2966l.0371-.1597h.7756l-.0371.1597z"/><path d="m13.3838 12.201.1625-.0684c.0028.0513.0171.0913.0485.1169.0313.0257.0741.0399.1311.0399.0542 0 .0998-.0142.1398-.0456.0399-.0314.0656-.0713.077-.1226.0171-.0684-.0229-.1283-.1198-.1797-.0143-.0085-.0228-.0142-.0314-.0171-.1083-.0627-.1768-.1169-.2053-.1682s-.0342-.1112-.0171-.1825c.0228-.0941.0713-.1682.1483-.2281.077-.0571.1625-.0884.2652-.0884.0827 0 .1483.0171.1967.0485.0485.0313.0742.0798.0827.1397l-.1597.0741c-.0142-.037-.0313-.0627-.0541-.0798s-.0514-.0257-.0856-.0257c-.0485 0-.0912.0143-.1254.0399-.0343.0257-.0571.0599-.0685.1055-.0171.0685.0314.1341.1426.1939.0085.0058.0143.0086.02.0115.0969.0513.1625.1026.191.1539.0285.0514.0342.1112.0171.1882-.0256.1084-.0798.1939-.1625.2595-.0827.0628-.1797.097-.2937.097-.0941 0-.1683-.0228-.2196-.0685-.057-.0456-.0827-.1112-.0798-.1939z"/><path d="m14.7268 12.432.2738-1.1492h.1825l-.2738 1.1492z"/><path d="m15.1718 12.432.2851-1.1948.5418.7015c.0143.02.0285.0399.0428.0627.0142.0228.0285.0485.0456.077l.191-.7956h.1683l-.2852 1.192-.5532-.7157c-.0142-.02-.0285-.04-.0427-.0599-.0143-.0228-.0257-.0428-.0343-.0685l-.191.7985h-.1682z"/><path d="m17.028 11.4397-.2367.9895h-.1825l.2367-.9895h-.2965l.037-.1597h.7756l-.037.1597z"/><path d="m17.2247 12.432.2738-1.1492h.6273l-.0371.1597h-.4419l-.0685.288h.442l-.0399.1626h-.442l-.0884.3707h.442l-.0399.1682z"/><path d="m18.3511 11.9159-.1226.5133h-.1711l.2737-1.1492h.2538c.0741 0 .1312.0057.1682.0143.04.0085.0713.0256.0941.0484.0286.0285.0457.0628.0542.1084.0086.0428.0057.0912-.0057.1454-.0228.0913-.0599.1654-.1169.2167-.057.0514-.1283.0827-.2139.0941l.2595.5219h-.2053l-.2481-.5133zm.0456-.1454h.0342c.097 0 .1626-.0114.1996-.0343.0371-.0228.0628-.0627.077-.1226.0143-.0627.0086-.1083-.0199-.134-.0286-.0257-.0884-.0399-.1797-.0399h-.0342z"/><path d="m18.9357 12.432.2737-1.1492h.6245l-.0371.1597h-.442l-.0684.2852h.442l-.0399.1625h-.442l-.1283.539h-.1825z"/><path d="m20.4414 12.432-.0571-.2965h-.4448l-.1996.2965h-.1911l.827-1.1948.2566 1.1948zm-.3964-.4534h.3108l-.0513-.2623c-.0029-.0171-.0057-.0371-.0057-.0571-.0029-.0228-.0029-.0456-.0029-.0712-.0114.0256-.0228.0484-.037.0712-.0114.0229-.0229.0428-.0343.0599z"/><path d="m21.8186 11.5623c-.0399-.0456-.0884-.0798-.1397-.0998-.0513-.0228-.1083-.0342-.1739-.0342-.1226 0-.231.0399-.3279.1197-.097.0799-.1597.1854-.1911.3137-.0285.1226-.0171.2253.0399.308.0542.0798.1397.1197.2538.1197.0656 0 .1312-.0114.1968-.037.0655-.0228.1311-.0599.1996-.1084l-.0514.211c-.057.0371-.1169.0628-.1796.0799s-.1255.0256-.1939.0256c-.0856 0-.1625-.0142-.2281-.0427-.0656-.0286-.1198-.0713-.1626-.1284-.0427-.0541-.0684-.1197-.0798-.1939-.0114-.0741-.0086-.1539.0142-.2395.02-.0855.0542-.1625.0998-.2367.0457-.0741.1056-.1397.174-.1939.0684-.057.1426-.0998.2224-.1283.0799-.0285.1597-.0428.2424-.0428.0656 0 .1255.0086.1825.0285.0542.02.1055.0485.1511.0884z"/><path d="m21.8357 12.432.2737-1.1492h.6245l-.037.1597h-.442l-.0685.288h.442l-.0399.1626h-.442l-.0884.3707h.442l-.0399.1682z"/></g><path d="m18.5164 10.2819h-1.2519l1.7395-6.2819h1.2518z" fill="#70706e"/><path d="m17.8663 4.19675c-.0856-.11976-.2196-.17964-.4021-.17964h-6.8779l-.3393 1.23186h1.2518 5.0044l-.365 1.31456h-5.0044v-.00285h-1.25185l-1.03796 3.74972h1.25181l.6958-2.51501h5.6261c.1768 0 .3422-.05988.4961-.17964.154-.11977.2567-.26805.3052-.44484l.6957-2.51506c.0542-.1882.0371-.33933-.0484-.4591z" fill="#70706e"/><path d="m8.11399 9.88842c-.06844.24808-.29656.42198-.5532.42198h-6.45303c-.176795 0-.307966-.0598-.393512-.1796s-.105507-.26804-.054179-.44484l1.574051-5.66885h1.25182l-1.40581 5.06433h5.0073l1.40581-5.06433h1.25183z" fill="#70706e"/><path d="m22.4174 4.01143 1.5826 3.1481-3.3278 3.14807z" fill="#098041"/><path d="m21.3052 4.01141 1.5826 3.1481-3.3305 3.14809z" fill="#e97626"/></svg>

<svg width="24" height="16" viewBox="0 0 24 16" fill="none" xmlns="http://www.w3.org/2000/svg">
<path d="M0.192515 11.2828H0.372162L0.203921 11.9815C0.178257 12.0841 0.183961 12.164 0.218179 12.2153C0.252397 12.2666 0.315131 12.2923 0.409232 12.2923C0.500481 12.2923 0.577473 12.2666 0.637355 12.2153C0.697237 12.164 0.737159 12.0841 0.762823 11.9815L0.931063 11.2828H1.11356L0.942469 11.9986C0.905399 12.1526 0.839814 12.2695 0.742862 12.3465C0.648761 12.4235 0.523294 12.4634 0.369311 12.4634C0.215328 12.4634 0.10982 12.4263 0.0527897 12.3493C-0.00424099 12.2723 -0.0156471 12.1554 0.0214229 12.0014L0.192515 11.2828Z" fill="#3D3D3C"/>
<path d="M1.08789 12.432L1.37304 11.2372L1.91484 11.9387C1.92909 11.9587 1.94335 11.9786 1.95761 12.0014C1.97187 12.0242 1.98612 12.0499 2.00323 12.0784L2.19429 11.2828H2.36253L2.07737 12.4748L1.52418 11.7591C1.50992 11.7391 1.49566 11.7191 1.4814 11.6992C1.46715 11.6764 1.45574 11.6564 1.44718 11.6307L1.25613 12.4292H1.08789V12.432Z" fill="#3D3D3C"/>
<path d="M2.34827 12.432L2.62201 11.2828H2.80451L2.53077 12.432H2.34827Z" fill="#3D3D3C"/>
<path d="M2.79028 12.432L3.06403 11.2828H3.68852L3.65145 11.4425H3.20946L3.14102 11.7277H3.58301L3.54309 11.8902H3.1011L2.97278 12.4292H2.79028V12.432Z" fill="#3D3D3C"/>
<path d="M3.61719 12.432L3.89094 11.2828H4.07343L3.79969 12.432H3.61719Z" fill="#3D3D3C"/>
<path d="M4.0592 12.432L4.33295 11.2828H4.95744L4.92037 11.4425H4.47838L4.40994 11.7305H4.85193L4.81201 11.8931H4.37002L4.28162 12.2638H4.72361L4.68369 12.432H4.0592Z" fill="#3D3D3C"/>
<path d="M4.89465 12.432L5.1684 11.2828H5.41363C5.57332 11.2828 5.68453 11.2914 5.74441 11.3085C5.80429 11.3256 5.85562 11.3513 5.89554 11.3912C5.94687 11.4425 5.98109 11.5081 5.99535 11.5851C6.00961 11.6649 6.0039 11.7562 5.98109 11.856C5.95543 11.9587 5.91836 12.0471 5.86703 12.1269C5.8157 12.2067 5.75011 12.2695 5.67312 12.3208C5.61609 12.3607 5.55336 12.3864 5.48492 12.4035C5.41934 12.4206 5.31953 12.4292 5.18836 12.4292H5.13989H4.89465V12.432ZM5.11707 12.2609H5.27106C5.35375 12.2609 5.41934 12.2552 5.46496 12.2438C5.51059 12.2324 5.55051 12.2124 5.58758 12.1868C5.6389 12.1497 5.68168 12.1041 5.7159 12.0471C5.75011 11.9929 5.77578 11.9273 5.79289 11.8532C5.81 11.779 5.8157 11.7163 5.80715 11.6621C5.79859 11.6079 5.77863 11.5594 5.74441 11.5224C5.71875 11.4939 5.68738 11.4767 5.64461 11.4653C5.60183 11.4539 5.53625 11.4482 5.44215 11.4482H5.37656H5.31098L5.11707 12.2609Z" fill="#3D3D3C"/>
<path d="M6.81946 11.9159L6.69685 12.432H6.52576L6.7995 11.2828H7.0761C7.1588 11.2828 7.21583 11.2885 7.2529 11.2971C7.28997 11.3057 7.31848 11.3199 7.3413 11.3427C7.36981 11.3684 7.38977 11.4055 7.39833 11.4511C7.40688 11.4967 7.40403 11.5452 7.39262 11.5994C7.37837 11.6535 7.3584 11.7049 7.32704 11.7505C7.29567 11.7961 7.2586 11.8332 7.21868 11.8589C7.18446 11.8788 7.14739 11.8959 7.10747 11.9045C7.06755 11.913 7.00482 11.9187 6.92497 11.9187H6.8879H6.81946V11.9159ZM6.86794 11.7619H6.91357C7.01337 11.7619 7.08466 11.7505 7.12458 11.7277C7.1645 11.7049 7.19016 11.665 7.20442 11.6079C7.21868 11.548 7.21013 11.5024 7.18161 11.4796C7.15024 11.4539 7.08751 11.4425 6.99341 11.4425H6.94778L6.86794 11.7619Z" fill="#3D3D3C"/>
<path d="M8.01143 12.432L7.9544 12.1355H7.50956L7.30995 12.432H7.1189L7.94584 11.2372L8.20248 12.432H8.01143ZM7.61792 11.9786H7.92873L7.87741 11.7163C7.87455 11.6992 7.8717 11.6792 7.8717 11.6592C7.86885 11.6364 7.86885 11.6136 7.86885 11.588C7.85744 11.6136 7.84604 11.6364 7.83178 11.6592C7.82037 11.6821 7.80897 11.702 7.79756 11.7191L7.61792 11.9786Z" fill="#3D3D3C"/>
<path d="M8.46484 12.432L8.59031 11.9073L8.36218 11.2857H8.55323L8.69581 11.6764C8.69866 11.6878 8.70152 11.6992 8.70722 11.7163C8.71292 11.7334 8.71577 11.7505 8.72148 11.7676C8.73288 11.7505 8.74429 11.7334 8.75569 11.7163C8.7671 11.6992 8.77851 11.6849 8.78991 11.6707L9.12354 11.2857H9.30604L8.7728 11.9045L8.64734 12.4292H8.46484V12.432Z" fill="#3D3D3C"/>
<path d="M10.2014 11.8646C10.2014 11.856 10.2042 11.8303 10.2099 11.7904C10.2128 11.7562 10.2156 11.7305 10.2185 11.7077C10.2071 11.7334 10.1957 11.7591 10.1814 11.7876C10.1672 11.8132 10.1501 11.8417 10.1301 11.8674L9.69096 12.4805L9.54838 11.856C9.54268 11.8303 9.53697 11.8047 9.53412 11.7819C9.53127 11.7591 9.52842 11.7334 9.52842 11.7106C9.52272 11.7334 9.51416 11.7591 9.50561 11.7876C9.49705 11.8132 9.48565 11.8417 9.47139 11.8703L9.21475 12.4349H9.04651L9.59686 11.2372L9.75369 11.9615C9.75654 11.9729 9.75939 11.9929 9.76225 12.0185C9.7651 12.0442 9.7708 12.0784 9.7765 12.1183C9.79646 12.0841 9.82213 12.0442 9.85635 11.9929C9.8649 11.9786 9.87346 11.9701 9.87631 11.9615L10.3725 11.2372L10.3554 12.4349H10.1871L10.2014 11.8646Z" fill="#3D3D3C"/>
<path d="M10.5037 12.432L10.7774 11.2828H11.4019L11.3648 11.4425H10.9228L10.8544 11.7305H11.2964L11.2565 11.8931H10.8145L10.7261 12.2638H11.1681L11.1281 12.432H10.5037Z" fill="#3D3D3C"/>
<path d="M11.3363 12.432L11.6215 11.2372L12.1632 11.9387C12.1775 11.9587 12.1918 11.9786 12.206 12.0014C12.2203 12.0242 12.2345 12.0499 12.2516 12.0784L12.4427 11.2828H12.6109L12.3258 12.4748L11.7726 11.7591C11.7583 11.7391 11.7441 11.7191 11.7298 11.6992C11.7156 11.6764 11.7042 11.6564 11.6956 11.6307L11.5045 12.4292H11.3363V12.432Z" fill="#3D3D3C"/>
<path d="M13.1927 11.4397L12.956 12.4292H12.7735L13.0102 11.4397H12.7136L12.7507 11.28H13.5263L13.4892 11.4397H13.1927Z" fill="#3D3D3C"/>
<path d="M13.3838 12.201L13.5463 12.1326C13.5491 12.1839 13.5634 12.2239 13.5948 12.2495C13.6261 12.2752 13.6689 12.2894 13.7259 12.2894C13.7801 12.2894 13.8257 12.2752 13.8657 12.2438C13.9056 12.2124 13.9313 12.1725 13.9427 12.1212C13.9598 12.0528 13.9198 11.9929 13.8229 11.9415C13.8086 11.933 13.8001 11.9273 13.7915 11.9244C13.6832 11.8617 13.6147 11.8075 13.5862 11.7562C13.5577 11.7049 13.552 11.645 13.5691 11.5737C13.5919 11.4796 13.6404 11.4055 13.7174 11.3456C13.7944 11.2885 13.8799 11.2572 13.9826 11.2572C14.0653 11.2572 14.1309 11.2743 14.1793 11.3057C14.2278 11.337 14.2535 11.3855 14.262 11.4454L14.1023 11.5195C14.0881 11.4825 14.071 11.4568 14.0482 11.4397C14.0254 11.4226 13.9968 11.414 13.9626 11.414C13.9141 11.414 13.8714 11.4283 13.8372 11.4539C13.8029 11.4796 13.7801 11.5138 13.7687 11.5594C13.7516 11.6279 13.8001 11.6935 13.9113 11.7533C13.9198 11.7591 13.9256 11.7619 13.9313 11.7648C14.0282 11.8161 14.0938 11.8674 14.1223 11.9187C14.1508 11.9701 14.1565 12.0299 14.1394 12.1069C14.1138 12.2153 14.0596 12.3008 13.9769 12.3664C13.8942 12.4292 13.7972 12.4634 13.6832 12.4634C13.5891 12.4634 13.5149 12.4406 13.4636 12.3949C13.4066 12.3493 13.3809 12.2837 13.3838 12.201Z" fill="#3D3D3C"/>
<path d="M14.7268 12.432L15.0006 11.2828H15.1831L14.9093 12.432H14.7268Z" fill="#3D3D3C"/>
<path d="M15.1718 12.432L15.4569 11.2372L15.9987 11.9387C16.013 11.9587 16.0272 11.9786 16.0415 12.0014C16.0557 12.0242 16.07 12.0499 16.0871 12.0784L16.2781 11.2828H16.4464L16.1612 12.4748L15.608 11.7591C15.5938 11.7391 15.5795 11.7191 15.5653 11.6992C15.551 11.6764 15.5396 11.6564 15.531 11.6307L15.34 12.4292H15.1718V12.432Z" fill="#3D3D3C"/>
<path d="M17.028 11.4397L16.7913 12.4292H16.6088L16.8455 11.4397H16.549L16.586 11.28H17.3616L17.3246 11.4397H17.028Z" fill="#3D3D3C"/>
<path d="M17.2247 12.432L17.4985 11.2828H18.1258L18.0887 11.4425H17.6468L17.5783 11.7305H18.0203L17.9804 11.8931H17.5384L17.45 12.2638H17.892L17.8521 12.432H17.2247Z" fill="#3D3D3C"/>
<path d="M18.3511 11.9159L18.2285 12.4292H18.0574L18.3311 11.28H18.5849C18.659 11.28 18.7161 11.2857 18.7531 11.2943C18.7931 11.3028 18.8244 11.3199 18.8472 11.3427C18.8758 11.3712 18.8929 11.4055 18.9014 11.4511C18.91 11.4939 18.9071 11.5423 18.8957 11.5965C18.8729 11.6878 18.8358 11.7619 18.7788 11.8132C18.7218 11.8646 18.6505 11.8959 18.5649 11.9073L18.8244 12.4292H18.6191L18.371 11.9159H18.3511ZM18.3967 11.7705H18.4309C18.5279 11.7705 18.5935 11.7591 18.6305 11.7362C18.6676 11.7134 18.6933 11.6735 18.7075 11.6136C18.7218 11.5509 18.7161 11.5053 18.6876 11.4796C18.659 11.4539 18.5992 11.4397 18.5079 11.4397H18.4737L18.3967 11.7705Z" fill="#3D3D3C"/>
<path d="M18.9357 12.432L19.2094 11.2828H19.8339L19.7968 11.4425H19.3548L19.2864 11.7277H19.7284L19.6885 11.8902H19.2465L19.1182 12.4292H18.9357V12.432Z" fill="#3D3D3C"/>
<path d="M20.4414 12.432L20.3843 12.1355H19.9395L19.7399 12.432H19.5488L20.3758 11.2372L20.6324 12.432H20.4414ZM20.045 11.9786H20.3558L20.3045 11.7163C20.3016 11.6992 20.2988 11.6792 20.2988 11.6592C20.2959 11.6364 20.2959 11.6136 20.2959 11.588C20.2845 11.6136 20.2731 11.6364 20.2589 11.6592C20.2475 11.6821 20.236 11.702 20.2246 11.7191L20.045 11.9786Z" fill="#3D3D3C"/>
<path d="M21.8186 11.5623C21.7787 11.5167 21.7302 11.4825 21.6789 11.4625C21.6276 11.4397 21.5706 11.4283 21.505 11.4283C21.3824 11.4283 21.274 11.4682 21.1771 11.548C21.0801 11.6279 21.0174 11.7334 20.986 11.8617C20.9575 11.9843 20.9689 12.087 21.0259 12.1697C21.0801 12.2495 21.1656 12.2894 21.2797 12.2894C21.3453 12.2894 21.4109 12.278 21.4765 12.2524C21.542 12.2296 21.6076 12.1925 21.6761 12.144L21.6247 12.355C21.5677 12.3921 21.5078 12.4178 21.4451 12.4349C21.3824 12.452 21.3196 12.4605 21.2512 12.4605C21.1656 12.4605 21.0887 12.4463 21.0231 12.4178C20.9575 12.3892 20.9033 12.3465 20.8605 12.2894C20.8178 12.2353 20.7921 12.1697 20.7807 12.0955C20.7693 12.0214 20.7721 11.9416 20.7949 11.856C20.8149 11.7705 20.8491 11.6935 20.8947 11.6193C20.9404 11.5452 21.0003 11.4796 21.0687 11.4254C21.1371 11.3684 21.2113 11.3256 21.2911 11.2971C21.371 11.2686 21.4508 11.2543 21.5335 11.2543C21.5991 11.2543 21.659 11.2629 21.716 11.2828C21.7702 11.3028 21.8215 11.3313 21.8671 11.3712L21.8186 11.5623Z" fill="#3D3D3C"/>
<path d="M21.8357 12.432L22.1094 11.2828H22.7339L22.6969 11.4425H22.2549L22.1864 11.7305H22.6284L22.5885 11.8931H22.1465L22.0581 12.2638H22.5001L22.4602 12.432H21.8357Z" fill="#3D3D3C"/>
<path d="M18.5164 10.2819H17.2645L19.004 4H20.2558L18.5164 10.2819Z" fill="#70706E"/>
<path d="M17.8663 4.19675C17.7807 4.07699 17.6467 4.01711 17.4642 4.01711H10.5863L10.247 5.24897H11.4988H16.5032L16.1382 6.56353H11.1338V6.56068H9.88195L8.84399 10.3104H10.0958L10.7916 7.79539H16.4177C16.5945 7.79539 16.7599 7.73551 16.9138 7.61575C17.0678 7.49598 17.1705 7.3477 17.219 7.17091L17.9147 4.65585C17.9689 4.46765 17.9518 4.31652 17.8663 4.19675Z" fill="#70706E"/>
<path d="M8.11399 9.88842C8.04555 10.1365 7.81743 10.3104 7.56079 10.3104H1.10776C0.930965 10.3104 0.799794 10.2506 0.714248 10.1308C0.628702 10.011 0.608741 9.86276 0.660069 9.68596L2.23412 4.01711H3.48594L2.08013 9.08144H7.08743L8.49324 4.01711H9.74507L8.11399 9.88842Z" fill="#70706E"/>
<path d="M22.4174 4.01143L24 7.15953L20.6722 10.3076L22.4174 4.01143Z" fill="#098041"/>
<path d="M21.3052 4.01141L22.8878 7.15951L19.5573 10.3076L21.3052 4.01141Z" fill="#E97626"/>
</svg>
